DevCon_2019/Icons/SVG/icon_mag_glass.svg

<svg height="31" viewBox="0 0 30 31" width="30" xmlns="http://www.w3.org/2000/svg"><path d="m53.5714531 46.4285564c0-4.4107195-3.58929-8.0000095-8.0000095-8.0000095-4.4107196 0-8.0000096 3.58929-8.0000096 8.0000095 0 4.4107196 3.58929 8.0000096 8.0000096 8.0000096 4.4107195 0 8.0000095-3.58929 8.0000095-8.0000096zm9.142868 14.8571606c0 1.2500015-1.0357155 2.285717-2.285717 2.285717-.6071436 0-1.19643-.2500003-1.6071447-.6785722l-6.1250073-6.1071502c-2.0892883 1.4464303-4.5892912 2.2142884-7.1250085 2.2142884-6.9464369 0-12.5714436-5.6250067-12.5714436-12.5714436 0-6.9464368 5.6250067-12.5714435 12.5714436-12.5714435 6.9464368 0 12.5714435 5.6250067 12.5714435 12.5714435 0 2.5357174-.767858 5.0357203-2.2142883 7.1250085l6.1250073 6.1250073c.4107147.4107148.660715 1.0000012.660715 1.6071448z" fill="#f3f8f2" fill-rule="evenodd" transform="translate(-33 -33)"/></svg>

<?xml version="1.0" encoding="UTF-8"?>
<svg width="30px" height="31px" viewBox="0 0 30 31" version="1.1" xmlns="http://www.w3.org/2000/svg" xmlns:xlink="http://www.w3.org/1999/xlink">
    <!-- Generator: Sketch 52.6 (67491) - http://www.bohemiancoding.com/sketch -->
    <title>Search - FontAwesome</title>
    <desc>Created with Sketch.</desc>
    <g id="Page-1" stroke="none" stroke-width="1" fill="none" fill-rule="evenodd">
        <g id="MOBILE-425PX" transform="translate(-38.000000, -2379.000000)" fill="#F3F8F2">
            <g id="NEO-DEVCON-SPEAKERS" transform="translate(-276.000000, 1595.000000)">
                <g id="SPEAKER-GRID" transform="translate(281.000000, 55.000000)">
                    <g id="ROW">
                        <g id="PROFILE" transform="translate(0.000000, 696.000000)">
                            <g id="PHOTO">
                                <g id="1">
                                    <path d="M53.5714531,46.4285564 C53.5714531,42.0178369 49.9821631,38.4285469 45.5714436,38.4285469 C41.160724,38.4285469 37.571434,42.0178369 37.571434,46.4285564 C37.571434,50.839276 41.160724,54.428566 45.5714436,54.428566 C49.9821631,54.428566 53.5714531,50.839276 53.5714531,46.4285564 Z M62.7143211,61.285717 C62.7143211,62.5357185 61.6786056,63.571434 60.4286041,63.571434 C59.8214605,63.571434 59.2321741,63.3214337 58.8214594,62.8928618 L52.6964521,56.7857116 C50.6071638,58.2321419 48.1071609,59 45.5714436,59 C38.6250067,59 33,53.3749933 33,46.4285564 C33,39.4821196 38.6250067,33.8571129 45.5714436,33.8571129 C52.5178804,33.8571129 58.1428871,39.4821196 58.1428871,46.4285564 C58.1428871,48.9642738 57.3750291,51.4642767 55.9285988,53.5535649 L62.0536061,59.6785722 C62.4643208,60.089287 62.7143211,60.6785734 62.7143211,61.285717 Z" id="Search---FontAwesome"></path>
                                </g>
                            </g>
                        </g>
                    </g>
                </g>
            </g>
        </g>
    </g>
</svg>
